img/icons/Group 4.svg

<svg width="52" height="52" viewBox="0 0 52 52" fill="none" xmlns="http://www.w3.org/2000/svg">
<path d="M51.2125 32.3547C47.7056 46.3789 33.6779 54.7057 19.6502 51.1997C5.62255 47.6936 -2.70641 33.6695 0.800517 19.6453C4.30744 5.62114 18.3351 -2.70573 32.3628 0.800316C46.1713 4.30636 54.7195 18.3305 51.2125 32.3547Z" fill="#B8B7B7"/>
<path d="M21.992 14L18.496 26.6222L16.104 27.5111L15 31.6L17.392 30.7111L15.368 38H36.528L38 32.6667H25.304L26.776 27.5111L29.168 26.6222L30.272 22.5333L27.88 23.2444L30.456 14H21.992Z" fill="white"/>
</svg>

<svg width="52" height="52" viewBox="0 0 52 52" fill="none" xmlns="http://www.w3.org/2000/svg"><path d="M51.212 32.355C47.706 46.379 33.678 54.705 19.65 51.2 5.623 47.694-2.706 33.67.8 19.645 4.308 5.621 18.336-2.705 32.364.8c13.808 3.506 22.356 17.53 18.85 31.555z" fill="#B8B7B7"/><path d="M21.992 14l-3.496 12.622-2.392.89L15 31.6l2.392-.889L15.368 38h21.16L38 32.667H25.304l1.472-5.156 2.392-.889 1.104-4.089-2.392.711L30.456 14h-8.464z" fill="#fff"/></svg>
